symbolic/24x24/apps/pencil.svg

<svg xmlns="http://www.w3.org/2000/svg" width="24" height="24" version="1.1">
 <g transform="translate(1 1)">
  <circle fill="#e4e4e4" cx="11" cy="11" r="10"/>
  <path fill="#4e4e4e" fill-rule="evenodd" d="m13 7-5 3v10.537a10 10 0 0 0 3 0.463 10 10 0 0 0 7 -2.861v-8.1387l-5-3z"/>
  <path fill="#fea332" fill-rule="evenodd" d="m13 8-4 2.5v10.297a10 10 0 0 0 2 0.203 10 10 0 0 0 6 -2.013v-8.4873l-4-2.5z"/>
  <path opacity=".2" d="m21 11.5a10 9 0 0 1 -1.369 4.526 10 10 0 0 1 -8.631 4.974 10 10 0 0 1 -8.583 -4.907 10 9 0 0 1 -1.3818 -3.881 10 10 0 0 0 9.9648 9.288 10 10 0 0 0 10 -10z"/>
  <path opacity=".2" d="m15 11.5a2 1 0 0 1 -1 0.86602 2 1 0 0 1 -2 0 2 1 0 0 1 -1 -0.866"/>
  <path fill="#4e4e4e" d="m15 11a2 1 0 0 1 -1 0.86602 2 1 0 0 1 -2 0 2 1 0 0 1 -1 -0.866"/>
  <path fill="#fff" opacity=".2" d="m11 1a10 10 0 0 0 -10 10 10 9 0 0 1 1.3691 -4.5264 10 10 0 0 1 8.6309 -4.9736 10 10 0 0 1 8.583 4.9072 10 9 0 0 1 1.382 3.8808 10 10 0 0 0 -9.965 -9.288z"/>
 </g>
</svg>

<svg xmlns="http://www.w3.org/2000/svg" width="24" height="24"><g transform="translate(1 1)"><circle fill="#e4e4e4" cx="11" cy="11" r="10"/><path fill="#4e4e4e" fill-rule="evenodd" d="m13 7-5 3v10.537A10 10 0 0 0 11 21a10 10 0 0 0 7-2.861V10l-5-3z"/><path fill="#fea332" fill-rule="evenodd" d="m13 8-4 2.5v10.297A10 10 0 0 0 11 21a10 10 0 0 0 6-2.013V10.5L13 8z"/><path opacity=".2" d="M21 11.5a10 9 0 0 1-1.369 4.526A10 10 0 0 1 11 21a10 10 0 0 1-8.583-4.907 10 9 0 0 1-1.382-3.881A10 10 0 0 0 11 21.5a10 10 0 0 0 10-10z"/><path opacity=".2" d="M15 11.5a2 1 0 0 1-1 .866 2 1 0 0 1-2 0 2 1 0 0 1-1-.866"/><path fill="#4e4e4e" d="M15 11a2 1 0 0 1-1 .866 2 1 0 0 1-2 0A2 1 0 0 1 11 11"/><path fill="#fff" opacity=".2" d="M11 1A10 10 0 0 0 1 11a10 9 0 0 1 1.37-4.526A10 10 0 0 1 11 1.5a10 10 0 0 1 8.583 4.907 10 9 0 0 1 1.382 3.881A10 10 0 0 0 11 1z"/></g></svg>
